text-box-edit.svg

<svg fill="currentColor" viewBox="0 0 24 24"><path d="M10 19.11 12.11 17H7v-2h7v.12L16.12 13H7v-2h10v1.12l1.24-1.23c.48-.48 1.11-.75 1.8-.75.33 0 .66.07.96.19V5a2 2 0 0 0-2-2H5c-1.11 0-2 .89-2 2v14a2 2 0 0 0 2 2h5zM7 7h10v2H7zm14.7 7.35-1 1-2.05-2.05 1-1a.55.55 0 0 1 .77 0l1.28 1.28c.21.21.21.56 0 .77M12 19.94l6.06-6.06 2.05 2.05L14.06 22H12z"/></svg>

<svg  viewBox="0 0 24 24" fill="currentColor"><path  d="M10 19.11L12.11 17H7V15H14V15.12L16.12 13H7V11H17V12.12L18.24 10.89C18.72 10.41 19.35 10.14 20.04 10.14C20.37 10.14 20.7 10.21 21 10.33V5C21 3.89 20.1 3 19 3H5C3.89 3 3 3.89 3 5V19C3 20.11 3.9 21 5 21H10V19.11M7 7H17V9H7V7M21.7 14.35L20.7 15.35L18.65 13.3L19.65 12.3C19.86 12.09 20.21 12.09 20.42 12.3L21.7 13.58C21.91 13.79 21.91 14.14 21.7 14.35M12 19.94L18.06 13.88L20.11 15.93L14.06 22H12V19.94Z"/></svg>
